icons/lactose.svg

<svg width="48" height="48" viewBox="0 0 48 48" fill="none" xmlns="http://www.w3.org/2000/svg">
<path fill-rule="evenodd" clip-rule="evenodd" d="M28.3934 19H19.6067C19.0802 19 18.6439 19.4082 18.6089 19.9335L17.2089 40.9335C17.1704 41.5107 17.6282 42 18.2067 42H29.7934C30.3718 42 30.8296 41.5107 30.7911 40.9335L29.3911 19.9335C29.3561 19.4082 28.9198 19 28.3934 19ZM19.6067 17C18.0273 17 16.7184 18.2246 16.6133 19.8004L15.2133 40.8004C15.0979 42.532 16.4713 44 18.2067 44H29.7934C31.5288 44 32.9022 42.532 32.7867 40.8004L31.3867 19.8004C31.2817 18.2245 29.9727 17 28.3934 17H19.6067Z" fill="black"/>
<path fill-rule="evenodd" clip-rule="evenodd" d="M19 17H29C29 14.2386 26.7614 12 24 12C21.2386 12 19 14.2386 19 17ZM24 10C20.134 10 17 13.134 17 17V17.7143C17 18.4244 17.5757 19 18.2857 19H29.7143C30.4244 19 31 18.4244 31 17.7143V17C31 13.134 27.866 10 24 10Z" fill="black"/>
<path fill-rule="evenodd" clip-rule="evenodd" d="M21 22C21.5523 22 22 22.4477 22 23L22 39C22 39.5523 21.5523 40 21 40C20.4477 40 20 39.5523 20 39L20 23C20 22.4477 20.4477 22 21 22Z" fill="black"/>
<path fill-rule="evenodd" clip-rule="evenodd" d="M27 22C27.5523 22 28 22.4477 28 23L28 39C28 39.5523 27.5523 40 27 40C26.4477 40 26 39.5523 26 39L26 23C26 22.4477 26.4477 22 27 22Z" fill="black"/>
<path d="M22 15C22 15.5523 21.5523 16 21 16C20.4477 16 20 15.5523 20 15C20 14.4477 20.4477 14 21 14C21.5523 14 22 14.4477 22 15Z" fill="black"/>
<path d="M25 14C25 14.5523 24.5523 15 24 15C23.4477 15 23 14.5523 23 14C23 13.4477 23.4477 13 24 13C24.5523 13 25 13.4477 25 14Z" fill="black"/>
<path d="M31 8C31 8.55228 30.5523 9 30 9C29.4477 9 29 8.55228 29 8C29 7.44772 29.4477 7 30 7C30.5523 7 31 7.44772 31 8Z" fill="black"/>
<path d="M30 5C30 5.55228 29.5523 6 29 6C28.4477 6 28 5.55228 28 5C28 4.44772 28.4477 4 29 4C29.5523 4 30 4.44772 30 5Z" fill="black"/>
<path d="M27 7C27 7.55228 26.5523 8 26 8C25.4477 8 25 7.55228 25 7C25 6.44772 25.4477 6 26 6C26.5523 6 27 6.44772 27 7Z" fill="black"/>
<path d="M28 15C28 15.5523 27.5523 16 27 16C26.4477 16 26 15.5523 26 15C26 14.4477 26.4477 14 27 14C27.5523 14 28 14.4477 28 15Z" fill="black"/>
</svg>

<svg
  xmlns="http://www.w3.org/2000/svg"
  width="24"
  height="24"
  viewBox="0 0 24 24"
  fill="none"
  stroke="currentColor"
  stroke-width="2"
  stroke-linecap="round"
  stroke-linejoin="round"
>
  <path
    fill-rule="evenodd"
    d="M28.393 19h-8.786a1 1 0 0 0-.998.933l-1.4 21A1 1 0 0 0 18.207 42h11.586a1 1 0 0 0 .998-1.066l-1.4-21a1 1 0 0 0-.998-.934m-8.786-2a3 3 0 0 0-2.994 2.8l-1.4 21a3 3 0 0 0 2.994 3.2h11.586a3 3 0 0 0 2.994-3.2l-1.4-21a3 3 0 0 0-2.994-2.8z"
    clip-rule="evenodd"
  />
  <path
    fill-rule="evenodd"
    d="M19 17h10a5 5 0 0 0-10 0m5-7a7 7 0 0 0-7 7v.714c0 .71.576 1.286 1.286 1.286h11.428c.71 0 1.286-.576 1.286-1.286V17a7 7 0 0 0-7-7"
    clip-rule="evenodd"
  />
  <path
    fill-rule="evenodd"
    d="M21 22a1 1 0 0 1 1 1v16a1 1 0 1 1-2 0V23a1 1 0 0 1 1-1"
    clip-rule="evenodd"
  />
  <path
    fill-rule="evenodd"
    d="M27 22a1 1 0 0 1 1 1v16a1 1 0 1 1-2 0V23a1 1 0 0 1 1-1"
    clip-rule="evenodd"
  />
  <path d="M22 15a1 1 0 1 1-2 0 1 1 0 0 1 2 0" />
  <path d="M25 14a1 1 0 1 1-2 0 1 1 0 0 1 2 0" />
  <path d="M31 8a1 1 0 1 1-2 0 1 1 0 0 1 2 0" />
  <path d="M30 5a1 1 0 1 1-2 0 1 1 0 0 1 2 0" />
  <path d="M27 7a1 1 0 1 1-2 0 1 1 0 0 1 2 0" />
  <path d="M28 15a1 1 0 1 1-2 0 1 1 0 0 1 2 0" />
</svg>
